public/topics/30.svg

<svg width="250" height="250" viewBox="0 0 250 250" fill="none" xmlns="http://www.w3.org/2000/svg">
<rect width="250" height="250" rx="30" fill="#336633"/>
<path d="M72 115C82.9333 117.4 92 122.133 99.2 129.2C106.4 136.267 110 144.467 110 153.8C110 159.4 108.667 164.867 106 170.2C101.733 178.733 95.3333 185.133 86.8 189.4C78.4 193.667 68.6667 195.8 57.6 195.8C50.6667 195.8 44.4667 194.533 39 192C33.5333 189.333 28.1333 185.8 22.8 181.4C20.8 179.533 19 176.867 17.4 173.4C15.9333 169.933 15.2 167.067 15.2 164.8C15.2 161.867 16 159.533 17.6 157.8C19.3333 155.933 21.6 155 24.4 155C27.2 155 29.4 155.667 31 157C32.6 158.333 34.5333 160.467 36.8 163.4C38.9333 166.2 40.8667 168.467 42.6 170.2C44.3333 171.8 46.6667 173.2 49.6 174.4C52.5333 175.6 56.2 176.2 60.6 176.2C69.5333 176.2 76.5333 174 81.6 169.6C86.6667 165.2 89.2 159 89.2 151C89.2 147.933 87.5333 144.867 84.2 141.8C80.8667 138.6 77.7333 136.333 74.8 135C73.0667 134.067 69.8667 133.133 65.2 132.2C58.9333 130.6 54.2 129.067 51 127.6C47.9333 126 46.4 123.533 46.4 120.2C46.4 117.933 47.4 115.733 49.4 113.6C51.4 111.333 54.4 108.533 58.4 105.2C62.4 101.867 65.4 99.1333 67.4 97C69.4 94.7333 70.4 92.4667 70.4 90.2C67.8667 89.5333 64.0667 89.2 59 89.2C56.7333 89.2 53.3333 89.3333 48.8 89.6C44.8 89.8667 41.7333 90 39.6 90C34.8 90 30.6667 89.2 27.2 87.6C23.8667 86 22.2 83.9333 22.2 81.4C22.2 78.6 22.4667 76.4 23 74.8C23.5333 73.0667 24.5333 72 26 71.6C26.9333 71.2 28.6 71 31 71C37.5333 71 43.2 71.2 48 71.6C53.3333 71.8667 57.4 72 60.2 72L76.8 71.8C90.4 71.8 97.2 75.0667 97.2 81.6C97.2 86.5333 94.6667 92.1333 89.6 98.4C84.6667 104.533 78.8 110.067 72 115ZM215.784 82.2C220.184 89 223.718 96.8 226.384 105.6C229.051 114.267 230.384 123.133 230.384 132.2C230.384 143 228.518 153.267 224.784 163C221.184 172.733 215.718 180.667 208.384 186.8C201.184 192.933 192.384 196 181.984 196C172.251 196 163.318 193.533 155.184 188.6C147.051 183.533 140.918 177.667 136.784 171C133.718 166.067 131.384 160.533 129.784 154.4C128.184 148.133 127.384 141.867 127.384 135.6C127.384 124.667 129.651 114 134.184 103.6C138.851 93.2 145.251 84.8667 153.384 78.6C161.118 72.8667 169.984 70 179.984 70C191.051 70 202.984 74.0667 215.784 82.2ZM162.184 96C160.984 98 159.784 99.8 158.584 101.4C155.651 105.8 153.518 109.533 152.184 112.6C150.851 115.533 149.651 120.067 148.584 126.2C148.051 129 147.784 132.267 147.784 136C147.784 145.467 149.651 153.667 153.384 160.6C157.251 167.4 162.518 172 169.184 174.4C172.384 175.6 175.984 176.2 179.984 176.2C189.984 176.2 197.518 171.8 202.584 163C207.784 154.067 210.384 143.067 210.384 130C210.384 117.867 208.118 107.933 203.584 100.2C199.051 92.3333 192.051 88.4 182.584 88.4C178.718 88.4 175.384 89 172.584 90.2C169.918 91.4 166.451 93.3333 162.184 96Z" fill="white"/>
</svg>

<svg xmlns="http://www.w3.org/2000/svg" width="250" height="250" fill="none" viewBox="0 0 250 250"><rect width="250" height="250" fill="#363" rx="30"/><path fill="#fff" d="M72 115q16.4 3.6 27.2 14.2t10.8 24.6q0 8.4-4 16.4-6.4 12.8-19.2 19.2-12.6 6.4-29.2 6.4-10.4 0-18.6-3.8-8.2-4-16.2-10.6-3-2.8-5.4-8-2.2-5.2-2.2-8.6 0-4.4 2.4-7 2.6-2.8 6.8-2.8t6.6 2 5.8 6.4q3.2 4.2 5.8 6.8 2.6 2.4 7 4.2t11 1.8q13.4 0 21-6.6t7.6-18.6q0-4.6-5-9.2-5-4.8-9.4-6.8-2.6-1.4-9.6-2.8-9.4-2.4-14.2-4.6-4.6-2.4-4.6-7.4 0-3.4 3-6.6 3-3.4 9-8.4t9-8.2q3-3.4 3-6.8-3.8-1-11.4-1-3.4 0-10.2.4-6 .4-9.2.4-7.2 0-12.4-2.4-5-2.4-5-6.2 0-4.2.8-6.6.8-2.6 3-3.2 1.4-.6 5-.6 9.8 0 17 .6 8 .4 12.2.4l16.6-.2q20.4 0 20.4 9.8 0 7.4-7.6 16.8-7.4 9.2-17.6 16.6m143.784-32.8q6.6 10.2 10.6 23.4a90 90 0 0 1 4 26.6q0 16.2-5.6 30.8-5.4 14.6-16.4 23.8-10.8 9.2-26.4 9.2-14.6 0-26.8-7.4-12.2-7.6-18.4-17.6-4.6-7.4-7-16.6-2.4-9.4-2.4-18.8 0-16.4 6.8-32 7-15.6 19.2-25 11.6-8.6 26.6-8.6 16.6 0 35.8 12.2m-53.6 13.8q-1.8 3-3.6 5.4-4.4 6.6-6.4 11.2-2 4.4-3.6 13.6-.8 4.2-.8 9.8 0 14.2 5.6 24.6 5.8 10.2 15.8 13.8 4.8 1.8 10.8 1.8 15 0 22.6-13.2 7.8-13.4 7.8-33 0-18.2-6.8-29.8-6.8-11.8-21-11.8-5.8 0-10 1.8-4 1.8-10.4 5.8"/></svg>
